X: 1
T:Hornpipe
T:(The Rights of Man)
B:Joyce, P. W.; "Old Irish Folk Music and Songs"
N:See #286 for history
A:Kilkenny
O:Irish
R:hornpipe
L:1/8
M:C
K:G
GA|\
(3BcB (3ABA G2 F2|EFGA Bdef|gfed e2 (3dcB|cBAG A2 GA|
BcAB GAGF|EFGA Bdef|gfed Bgfg|e2 E2 E2::ga|
bgaf efga|bagf egfe|d2 dc defg|afdf g2 fg|
eBeg fdfa|gfef gbaf|gfed Bgfg|e2 E2 E2:|
